X: 183
T: Kitty O'Hara
N:"Tenderly"
B:O'Neill's 183
Z:Transcribed by henrik.norbeck@mailbox.swipnet.se
M:3/4
L:1/8
K:G
{A}(G>E)|D z E z (G/4A/4B3/2)|c z B z A z|G2 (G>AB>G)|E2 {FE}D2 D2|
E2 G2 (G/4A/4B3/2)|c z c z (d>B)|G2 (G>A) (B>c)|A2 G z||
(D>E)|=F2 (F>A) (G>^F)|E2 E2 (D>E)|G2 (G>AB>G)|(E2 D) z (~B>c)|
[1 d z d2 e>d|c z c2 (d>c)|B2 G>A B>G|A2 G z:|
[2 d z d2 (e>d)|c z {DFA}c2 d>c|B2 (G>A) (B>G)|(A2 G) z||


